build/system/MicrophoneOutline.svg

<svg xmlns="http://www.w3.org/2000/svg" fill="none" viewBox="0 0 24 24" focusable="false"><path d="M0 0H24V24H0z"/><path fill="#74767B" fill-rule="evenodd" d="M7.71445 6.28476C7.71445 3.91835 9.63331 2 12.0003 2C14.3674 2 16.2862 3.91835 16.2862 6.28476L16.2862 11.1295C16.2862 13.496 14.3674 15.4143 12.0003 15.4143C9.63331 15.4143 7.71445 13.496 7.71445 11.1295L7.71445 6.28476ZM14.9862 6.28476L14.9862 11.1295C14.9862 12.7782 13.6494 14.1146 12.0003 14.1146C10.3513 14.1146 9.01445 12.7782 9.01445 11.1295L9.01445 6.28476C9.01445 4.63613 10.3513 3.29965 12.0003 3.29965C13.6494 3.29965 14.9862 4.63613 14.9862 6.28476ZM5.64854 10.4798C6.00752 10.4798 6.29854 10.7708 6.29854 11.1297C6.29854 14.2777 8.85119 16.8297 12.0001 16.8297C15.1489 16.8297 17.7016 14.2777 17.7016 11.1297C17.7016 10.7708 17.9926 10.4798 18.3516 10.4798C18.7106 10.4798 19.0016 10.7708 19.0016 11.1297C19.0016 14.7765 16.2119 17.772 12.6495 18.0996C12.6497 18.1034 12.6498 18.1073 12.6499 18.1112C12.6501 18.1172 12.6502 18.1233 12.6502 18.1294L12.6502 20.7003L15.3501 20.7003C15.7091 20.7003 16.0001 20.9913 16.0001 21.3502C16.0001 21.7091 15.7091 22 15.3501 22L8.6501 22C8.29111 22 8.0001 21.7091 8.0001 21.3502C8.0001 20.9913 8.29111 20.7003 8.6501 20.7003L11.3502 20.7003L11.3502 18.1294C11.3502 18.1194 11.3504 18.1095 11.3509 18.0996C7.78838 17.7722 4.99854 14.7766 4.99854 11.1297C4.99854 10.7708 5.28955 10.4798 5.64854 10.4798Z"/></svg>

<svg xmlns="http://www.w3.org/2000/svg" fill="none" viewBox="0 0 24 24" focusable="false"><path fill="#74767B" fill-rule="evenodd" d="M12 2a4.28 4.28 0 0 0-4.29 4.28v4.84A4.29 4.29 0 0 0 12 15.41c2.36 0 4.28-1.92 4.28-4.29V6.28C16.28 3.91 14.36 2 12 2m2.98 9.12V6.28A2.99 2.99 0 0 0 12 3.29c-1.65 0-2.99 1.34-2.99 2.99v4.84c0 1.65 1.34 2.99 2.99 2.99a2.99 2.99 0 0 0 2.98-2.99m-9.34-.65c.36 0 .65.3.65.65a5.706 5.706 0 0 0 11.41 0c0-.35.29-.65.65-.65s.65.3.65.65c0 3.65-2.79 6.65-6.36 6.97v.02l.01.01v2.58h2.7c.35 0 .65.29.65.65 0 .35-.3.65-.65.65H8.64c-.35 0-.64-.3-.64-.65 0-.36.29-.65.64-.65h2.71v-2.61a6.994 6.994 0 0 1-6.36-6.97c0-.35.29-.65.65-.65"/></svg>
